packages/astro-components-stencil/src/icons/featured-play-list.svg

<svg xmlns="http://www.w3.org/2000/svg" viewBox="0 0 24 24"><g xmlns="http://www.w3.org/2000/svg" id="featured-play-list" fill-rule="nonzero">
            <path d="M21 3H3c-1.1 0-2 .9-2 2v14c0 1.1.9 2 2 2h18c1.1 0 2-.9 2-2V5c0-1.1-.9-2-2-2zm-10 8H4c-.55 0-1-.45-1-1s.45-1 1-1h7c.55 0 1 .45 1 1s-.45 1-1 1zm0-4H4c-.55 0-1-.45-1-1s.45-1 1-1h7c.55 0 1 .45 1 1s-.45 1-1 1z"/>
        </g></svg>

<svg width="24" height="24" viewBox="0 0 24 24" fill="none" xmlns="http://www.w3.org/2000/svg">
<path fill-rule="evenodd" clip-rule="evenodd" d="M21 3H3C1.9 3 1 3.9 1 5V19C1 20.1 1.9 21 3 21H21C22.1 21 23 20.1 23 19V5C23 3.9 22.1 3 21 3ZM11 11H4C3.45 11 3 10.55 3 10C3 9.45 3.45 9 4 9H11C11.55 9 12 9.45 12 10C12 10.55 11.55 11 11 11ZM4 7H11C11.55 7 12 6.55 12 6C12 5.45 11.55 5 11 5H4C3.45 5 3 5.45 3 6C3 6.55 3.45 7 4 7Z" fill="black"/>
</svg>
